public/assets/css/svgs/fixstern-logo.svg

<?xml version="1.0" encoding="UTF-8" standalone="no"?><!DOCTYPE svg PUBLIC "-//W3C//DTD SVG 1.1//EN" "http://www.w3.org/Graphics/SVG/1.1/DTD/svg11.dtd"><svg width="100%" height="100%" viewBox="0 0 3834 1250" version="1.1" xmlns="http://www.w3.org/2000/svg" xmlns:xlink="http://www.w3.org/1999/xlink" xml:space="preserve" xmlns:serif="http://www.serif.com/" style="fill-rule:evenodd;clip-rule:evenodd;stroke-linejoin:round;stroke-miterlimit:2;"><g id="zwe-schriftgrössen-" serif:id="zwe schriftgrössen "><g><path d="M305.246,938.218c24.889,4.444 46,17.555 63.334,39.333c17.333,21.778 26,46.444 26,74c-0,23.556 -6.111,44.778 -18.334,63.667c-12.222,18.889 -29.889,33.777 -53,44.666c-23.111,10.889 -50,16.334 -80.666,16.334l-185.334,-0l0,-463.334l176.667,0c31.556,0 58.667,5.334 81.333,16c22.667,10.667 39.778,25 51.334,43c11.555,18 17.333,38.111 17.333,60.334c-0,26.666 -7.111,48.889 -21.333,66.666c-14.223,17.778 -33.334,30.889 -57.334,39.334Zm-172,-30.667l94,0c24.889,0 44.334,-5.667 58.334,-17c14,-11.333 21,-27.667 21,-49c-0,-20.889 -7,-37.222 -21,-49c-14,-11.778 -33.445,-17.667 -58.334,-17.667l-94,0l0,132.667Zm102.667,206.667c25.778,-0 46,-6.223 60.667,-18.667c14.666,-12.444 22,-29.778 22,-52c-0,-22.667 -7.778,-40.667 -23.334,-54c-15.555,-13.333 -36.222,-20 -62,-20l-100,0l0,144.667l102.667,-0Z" style="fill-rule:nonzero;"/><path d="M451.913,990.884c-0,-36.889 7.667,-69.555 23,-98c15.333,-28.444 36.222,-50.555 62.667,-66.333c26.444,-15.778 55.666,-23.667 87.666,-23.667c28.889,0 54.111,5.667 75.667,17c21.556,11.334 38.778,25.445 51.667,42.334l-0,-53.334l76.666,0l0,367.334l-76.666,-0l-0,-54.667c-12.889,17.333 -30.445,31.778 -52.667,43.333c-22.222,11.556 -47.556,17.334 -76,17.334c-31.556,-0 -60.444,-8.111 -86.667,-24.334c-26.222,-16.222 -47,-38.889 -62.333,-68c-15.333,-29.111 -23,-62.111 -23,-99Zm300.667,1.334c-0,-25.334 -5.223,-47.334 -15.667,-66c-10.444,-18.667 -24.111,-32.889 -41,-42.667c-16.889,-9.778 -35.111,-14.667 -54.667,-14.667c-19.555,0 -37.777,4.778 -54.666,14.334c-16.889,9.555 -30.556,23.555 -41,42c-10.445,18.444 -15.667,40.333 -15.667,65.666c-0,25.334 5.222,47.556 15.667,66.667c10.444,19.111 24.222,33.667 41.333,43.667c17.111,10 35.222,15 54.333,15c19.556,-0 37.778,-4.889 54.667,-14.667c16.889,-9.778 30.556,-24.111 41,-43c10.444,-18.889 15.667,-41 15.667,-66.333Z" style="fill-rule:nonzero;"/><path d="M1005.25,862.218c11.111,-18.667 25.889,-33.223 44.334,-43.667c18.444,-10.444 40.333,-15.667 65.666,-15.667l0,78.667l-19.333,0c-29.778,0 -52.333,7.556 -67.667,22.667c-15.333,15.111 -23,41.333 -23,78.666l0,193.334l-76,-0l0,-367.334l76,0l0,53.334Z" style="fill-rule:nonzero;"/><path d="M1261.25,862.218c11.111,-18.667 25.889,-33.223 44.334,-43.667c18.444,-10.444 40.333,-15.667 65.666,-15.667l0,78.667l-19.333,0c-29.778,0 -52.333,7.556 -67.667,22.667c-15.333,15.111 -23,41.333 -23,78.666l0,193.334l-76,-0l0,-367.334l76,0l0,53.334Z" style="fill-rule:nonzero;"/><path d="M1479.91,760.218c-13.778,-0 -25.333,-4.667 -34.667,-14c-9.333,-9.334 -14,-20.889 -14,-34.667c0,-13.778 4.667,-25.333 14,-34.667c9.334,-9.333 20.889,-14 34.667,-14c13.333,0 24.667,4.667 34,14c9.333,9.334 14,20.889 14,34.667c-0,13.778 -4.667,25.333 -14,34.667c-9.333,9.333 -20.667,14 -34,14Zm37.333,48.666l0,367.334l-76,-0l0,-367.334l76,0Z" style="fill-rule:nonzero;"/><path d="M1953.91,983.551c-0,13.778 -0.889,26.222 -2.667,37.333l-280.666,0c2.222,29.334 13.111,52.889 32.666,70.667c19.556,17.778 43.556,26.667 72,26.667c40.889,-0 69.778,-17.111 86.667,-51.334l82,0c-11.111,33.778 -31.222,61.445 -60.333,83c-29.111,21.556 -65.223,32.334 -108.334,32.334c-35.111,-0 -66.555,-7.889 -94.333,-23.667c-27.778,-15.778 -49.556,-38 -65.333,-66.667c-15.778,-28.666 -23.667,-61.889 -23.667,-99.666c-0,-37.778 7.667,-71 23,-99.667c15.333,-28.667 36.889,-50.778 64.667,-66.333c27.777,-15.556 59.666,-23.334 95.666,-23.334c34.667,0 65.556,7.556 92.667,22.667c27.111,15.111 48.222,36.333 63.333,63.667c15.111,27.333 22.667,58.777 22.667,94.333Zm-79.333,-24c-0.445,-28 -10.445,-50.444 -30,-67.333c-19.556,-16.889 -43.778,-25.334 -72.667,-25.334c-26.222,0 -48.667,8.334 -67.333,25c-18.667,16.667 -29.778,39.223 -33.334,67.667l203.334,0Z" style="fill-rule:nonzero;"/><path d="M2104.58,862.218c11.111,-18.667 25.889,-33.223 44.333,-43.667c18.444,-10.444 40.333,-15.667 65.667,-15.667l-0,78.667l-19.334,0c-29.777,0 -52.333,7.556 -67.666,22.667c-15.334,15.111 -23,41.333 -23,78.666l-0,193.334l-76,-0l-0,-367.334l76,0l-0,53.334Z" style="fill-rule:nonzero;"/><path d="M2621.25,983.551c0,13.778 -0.889,26.222 -2.666,37.333l-280.667,0c2.222,29.334 13.111,52.889 32.667,70.667c19.555,17.778 43.555,26.667 72,26.667c40.889,-0 69.777,-17.111 86.666,-51.334l82,0c-11.111,33.778 -31.222,61.445 -60.333,83c-29.111,21.556 -65.222,32.334 -108.333,32.334c-35.111,-0 -66.556,-7.889 -94.334,-23.667c-27.777,-15.778 -49.555,-38 -65.333,-66.667c-15.778,-28.666 -23.667,-61.889 -23.667,-99.666c0,-37.778 7.667,-71 23,-99.667c15.334,-28.667 36.889,-50.778 64.667,-66.333c27.778,-15.556 59.667,-23.334 95.667,-23.334c34.666,0 65.555,7.556 92.666,22.667c27.111,15.111 48.223,36.333 63.334,63.667c15.111,27.333 22.666,58.777 22.666,94.333Zm-79.333,-24c-0.444,-28 -10.444,-50.444 -30,-67.333c-19.556,-16.889 -43.778,-25.334 -72.667,-25.334c-26.222,0 -48.666,8.334 -67.333,25c-18.667,16.667 -29.778,39.223 -33.333,67.667l203.333,0Z" style="fill-rule:nonzero;"/><path d="M2849.91,870.884l-68,0l-0,305.334l-76.667,-0l0,-305.334l-43.333,0l-0,-62l43.333,0l0,-26c0,-42.222 11.223,-73 33.667,-92.333c22.444,-19.333 57.667,-29 105.667,-29l-0,63.333c-23.111,0 -39.334,4.334 -48.667,13c-9.333,8.667 -14,23.667 -14,45l-0,26l68,0l-0,62Z" style="fill-rule:nonzero;"/><path d="M2993.25,862.218c11.111,-18.667 25.889,-33.223 44.334,-43.667c18.444,-10.444 40.333,-15.667 65.666,-15.667l0,78.667l-19.333,0c-29.778,0 -52.333,7.556 -67.667,22.667c-15.333,15.111 -23,41.333 -23,78.666l0,193.334l-76,-0l0,-367.334l76,0l0,53.334Z" style="fill-rule:nonzero;"/><path d="M3509.91,983.551c-0,13.778 -0.889,26.222 -2.667,37.333l-280.666,0c2.222,29.334 13.111,52.889 32.666,70.667c19.556,17.778 43.556,26.667 72,26.667c40.889,-0 69.778,-17.111 86.667,-51.334l82,0c-11.111,33.778 -31.222,61.445 -60.333,83c-29.111,21.556 -65.223,32.334 -108.334,32.334c-35.111,-0 -66.555,-7.889 -94.333,-23.667c-27.778,-15.778 -49.556,-38 -65.333,-66.667c-15.778,-28.666 -23.667,-61.889 -23.667,-99.666c-0,-37.778 7.667,-71 23,-99.667c15.333,-28.667 36.889,-50.778 64.667,-66.333c27.777,-15.556 59.666,-23.334 95.666,-23.334c34.667,0 65.556,7.556 92.667,22.667c27.111,15.111 48.222,36.333 63.333,63.667c15.111,27.333 22.667,58.777 22.667,94.333Zm-79.333,-24c-0.445,-28 -10.445,-50.444 -30,-67.333c-19.556,-16.889 -43.778,-25.334 -72.667,-25.334c-26.222,0 -48.667,8.334 -67.333,25c-18.667,16.667 -29.778,39.223 -33.334,67.667l203.334,0Z" style="fill-rule:nonzero;"/><path d="M3623.25,760.218c-13.777,-0 -25.333,-4.667 -34.666,-14c-9.334,-9.334 -14,-20.889 -14,-34.667c-0,-13.778 4.666,-25.333 14,-34.667c9.333,-9.333 20.889,-14 34.666,-14c13.334,0 24.667,4.667 34,14c9.334,9.334 14,20.889 14,34.667c0,13.778 -4.666,25.333 -14,34.667c-9.333,9.333 -20.666,14 -34,14Zm37.334,48.666l-0,367.334l-76,-0l-0,-367.334l76,0Z" style="fill-rule:nonzero;"/></g><g><path d="M445.149,521.681l-239.741,0l-41.193,115.583l-98.038,-0l205.139,-566.517l108.748,0l205.139,566.517l-98.862,-0l-41.192,-115.583Zm-26.364,-75.698l-93.095,-262.909l-93.919,262.909l187.014,-0Z" style="fill-rule:nonzero;"/><path d="M853.779,413.425l209.258,223.839l-126.873,-0l-168.066,-192.909l0,192.909l-93.919,-0l0,-602.331l93.919,-0l0,350.003l164.771,-196.165l130.168,0l-209.258,224.654Z" style="fill-rule:nonzero;"/><path d="M1240.16,264.47l0,248.258c0,16.822 3.982,28.895 11.946,36.221c7.964,7.326 21.558,10.989 40.781,10.989l57.669,-0l0,77.326l-74.146,-0c-42.291,-0 -74.696,-9.768 -97.215,-29.303c-22.518,-19.535 -33.778,-51.279 -33.778,-95.233l0,-248.258l-53.55,-0l0,-75.699l53.55,0l0,-111.512l94.743,-0l0,111.512l110.396,0l0,75.699l-110.396,-0Z" style="fill-rule:nonzero;"/><path d="M1484.85,141.852c-17.026,0 -31.306,-5.697 -42.84,-17.093c-11.534,-11.395 -17.301,-25.504 -17.301,-42.326c-0,-16.822 5.767,-30.93 17.301,-42.326c11.534,-11.395 25.814,-17.093 42.84,-17.093c16.477,-0 30.483,5.698 42.017,17.093c11.533,11.396 17.3,25.504 17.3,42.326c0,16.822 -5.767,30.931 -17.3,42.326c-11.534,11.396 -25.54,17.093 -42.017,17.093Zm46.136,46.919l-0,402.659l-93.919,0l-0,-402.659l93.919,0Z" style="fill-rule:nonzero;"/><path d="M1851.46,644.589c-42.84,0 -81.561,-9.631 -116.163,-28.895c-34.602,-19.264 -61.789,-46.396 -81.561,-81.396c-19.773,-35.001 -29.659,-75.563 -29.659,-121.687c0,-45.582 10.161,-86.009 30.483,-121.281c20.321,-35.271 48.057,-62.403 83.208,-81.396c35.151,-18.992 74.422,-28.488 117.811,-28.488c43.39,-0 82.66,9.496 117.811,28.488c35.151,18.993 62.887,46.125 83.209,81.396c20.322,35.272 30.482,75.699 30.482,121.281c0,45.581 -10.435,86.008 -31.306,121.28c-20.871,35.271 -49.294,62.539 -85.269,81.803c-35.974,19.264 -75.657,28.895 -119.046,28.895Zm-0,-80.582c24.166,0 46.822,-5.697 67.968,-17.093c21.145,-11.395 38.309,-28.488 51.49,-51.279c13.182,-22.791 19.773,-50.466 19.773,-83.024c-0,-32.559 -6.316,-60.098 -18.949,-82.617c-12.632,-22.52 -29.384,-39.478 -50.255,-50.873c-20.871,-11.395 -43.389,-17.093 -67.555,-17.093c-24.167,-0 -46.548,5.698 -67.144,17.093c-20.597,11.395 -36.936,28.353 -49.02,50.873c-12.083,22.519 -18.124,50.058 -18.124,82.617c-0,48.295 12.495,85.601 37.485,111.919c24.99,26.318 56.434,39.477 94.331,39.477Z" style="fill-rule:nonzero;"/><path d="M2409.21,181.446c35.701,-0 67.693,7.325 95.979,21.977c28.286,14.651 50.392,36.357 66.32,65.117c15.928,28.759 23.892,63.488 23.892,104.187l-0,264.537l-93.095,-0l-0,-250.7c-0,-40.156 -10.161,-70.95 -30.483,-92.385c-20.322,-21.434 -48.058,-32.151 -83.209,-32.151c-35.151,-0 -63.025,10.717 -83.621,32.151c-20.596,21.435 -30.894,52.229 -30.894,92.385l-0,250.7l-93.919,-0l-0,-448.493l93.919,0l-0,51.28c15.378,-18.45 35.013,-32.83 58.905,-43.14c23.892,-10.31 49.294,-15.465 76.206,-15.465Z" style="fill-rule:nonzero;"/></g></g></svg>

<?xml version="1.0" encoding="UTF-8" standalone="no"?>
<!DOCTYPE svg PUBLIC "-//W3C//DTD SVG 1.1//EN" "http://www.w3.org/Graphics/SVG/1.1/DTD/svg11.dtd">
<svg width="100%" height="100%" viewBox="0 0 3834 1250" version="1.1" xmlns="http://www.w3.org/2000/svg" xmlns:xlink="http://www.w3.org/1999/xlink" xml:space="preserve" xmlns:serif="http://www.serif.com/" style="fill-rule:evenodd;clip-rule:evenodd;stroke-linejoin:round;stroke-miterlimit:2;">
    <g id="zwe-schriftgrössen-" serif:id="zwe schriftgrössen ">
        <g>
            <path d="M305.246,938.218C330.135,942.662 351.246,955.773 368.58,977.551C385.913,999.329 394.58,1024 394.58,1051.55C394.58,1075.11 388.469,1096.33 376.246,1115.22C364.024,1134.11 346.357,1149 323.246,1159.88C300.135,1170.77 273.246,1176.22 242.58,1176.22L57.246,1176.22L57.246,712.884L233.913,712.884C265.469,712.884 292.58,718.218 315.246,728.884C337.913,739.551 355.024,753.884 366.58,771.884C378.135,789.884 383.913,809.995 383.913,832.218C383.913,858.884 376.802,881.107 362.58,898.884C348.357,916.662 329.246,929.773 305.246,938.218ZM133.246,907.551L227.246,907.551C252.135,907.551 271.58,901.884 285.58,890.551C299.58,879.218 306.58,862.884 306.58,841.551C306.58,820.662 299.58,804.329 285.58,792.551C271.58,780.773 252.135,774.884 227.246,774.884L133.246,774.884L133.246,907.551ZM235.913,1114.22C261.691,1114.22 281.913,1108 296.58,1095.55C311.246,1083.11 318.58,1065.77 318.58,1043.55C318.58,1020.88 310.802,1002.88 295.246,989.551C279.691,976.218 259.024,969.551 233.246,969.551L133.246,969.551L133.246,1114.22L235.913,1114.22Z" style="fill-rule:nonzero;"/>
            <path d="M451.913,990.884C451.913,953.995 459.58,921.329 474.913,892.884C490.246,864.44 511.135,842.329 537.58,826.551C564.024,810.773 593.246,802.884 625.246,802.884C654.135,802.884 679.357,808.551 700.913,819.884C722.469,831.218 739.691,845.329 752.58,862.218L752.58,808.884L829.246,808.884L829.246,1176.22L752.58,1176.22L752.58,1121.55C739.691,1138.88 722.135,1153.33 699.913,1164.88C677.691,1176.44 652.357,1182.22 623.913,1182.22C592.357,1182.22 563.469,1174.11 537.246,1157.88C511.024,1141.66 490.246,1119 474.913,1089.88C459.58,1060.77 451.913,1027.77 451.913,990.884ZM752.58,992.218C752.58,966.884 747.357,944.884 736.913,926.218C726.469,907.551 712.802,893.329 695.913,883.551C679.024,873.773 660.802,868.884 641.246,868.884C621.691,868.884 603.469,873.662 586.58,883.218C569.691,892.773 556.024,906.773 545.58,925.218C535.135,943.662 529.913,965.551 529.913,990.884C529.913,1016.22 535.135,1038.44 545.58,1057.55C556.024,1076.66 569.802,1091.22 586.913,1101.22C604.024,1111.22 622.135,1116.22 641.246,1116.22C660.802,1116.22 679.024,1111.33 695.913,1101.55C712.802,1091.77 726.469,1077.44 736.913,1058.55C747.357,1039.66 752.58,1017.55 752.58,992.218Z" style="fill-rule:nonzero;"/>
            <path d="M1005.25,862.218C1016.36,843.551 1031.14,828.995 1049.58,818.551C1068.03,808.107 1089.92,802.884 1115.25,802.884L1115.25,881.551L1095.92,881.551C1066.14,881.551 1043.58,889.107 1028.25,904.218C1012.92,919.329 1005.25,945.551 1005.25,982.884L1005.25,1176.22L929.25,1176.22L929.25,808.884L1005.25,808.884L1005.25,862.218Z" style="fill-rule:nonzero;"/>
            <path d="M1261.25,862.218C1272.36,843.551 1287.14,828.995 1305.58,818.551C1324.03,808.107 1345.92,802.884 1371.25,802.884L1371.25,881.551L1351.92,881.551C1322.14,881.551 1299.58,889.107 1284.25,904.218C1268.92,919.329 1261.25,945.551 1261.25,982.884L1261.25,1176.22L1185.25,1176.22L1185.25,808.884L1261.25,808.884L1261.25,862.218Z" style="fill-rule:nonzero;"/>
            <path d="M1479.91,760.218C1466.13,760.218 1454.58,755.551 1445.24,746.218C1435.91,736.884 1431.24,725.329 1431.24,711.551C1431.24,697.773 1435.91,686.218 1445.24,676.884C1454.58,667.551 1466.13,662.884 1479.91,662.884C1493.24,662.884 1504.58,667.551 1513.91,676.884C1523.24,686.218 1527.91,697.773 1527.91,711.551C1527.91,725.329 1523.24,736.884 1513.91,746.218C1504.58,755.551 1493.24,760.218 1479.91,760.218ZM1517.24,808.884L1517.24,1176.22L1441.24,1176.22L1441.24,808.884L1517.24,808.884Z" style="fill-rule:nonzero;"/>
            <path d="M1953.91,983.551C1953.91,997.329 1953.02,1009.77 1951.24,1020.88L1670.58,1020.88C1672.8,1050.22 1683.69,1073.77 1703.24,1091.55C1722.8,1109.33 1746.8,1118.22 1775.24,1118.22C1816.13,1118.22 1845.02,1101.11 1861.91,1066.88L1943.91,1066.88C1932.8,1100.66 1912.69,1128.33 1883.58,1149.88C1854.47,1171.44 1818.35,1182.22 1775.24,1182.22C1740.13,1182.22 1708.69,1174.33 1680.91,1158.55C1653.13,1142.77 1631.35,1120.55 1615.58,1091.88C1599.8,1063.22 1591.91,1030 1591.91,992.218C1591.91,954.44 1599.58,921.218 1614.91,892.551C1630.24,863.884 1651.8,841.773 1679.58,826.218C1707.35,810.662 1739.24,802.884 1775.24,802.884C1809.91,802.884 1840.8,810.44 1867.91,825.551C1895.02,840.662 1916.13,861.884 1931.24,889.218C1946.35,916.551 1953.91,947.995 1953.91,983.551ZM1874.58,959.551C1874.13,931.551 1864.13,909.107 1844.58,892.218C1825.02,875.329 1800.8,866.884 1771.91,866.884C1745.69,866.884 1723.24,875.218 1704.58,891.884C1685.91,908.551 1674.8,931.107 1671.24,959.551L1874.58,959.551Z" style="fill-rule:nonzero;"/>
            <path d="M2104.58,862.218C2115.69,843.551 2130.47,828.995 2148.91,818.551C2167.36,808.107 2189.25,802.884 2214.58,802.884L2214.58,881.551L2195.25,881.551C2165.47,881.551 2142.91,889.107 2127.58,904.218C2112.25,919.329 2104.58,945.551 2104.58,982.884L2104.58,1176.22L2028.58,1176.22L2028.58,808.884L2104.58,808.884L2104.58,862.218Z" style="fill-rule:nonzero;"/>
            <path d="M2621.25,983.551C2621.25,997.329 2620.36,1009.77 2618.58,1020.88L2337.92,1020.88C2340.14,1050.22 2351.03,1073.77 2370.58,1091.55C2390.14,1109.33 2414.14,1118.22 2442.58,1118.22C2483.47,1118.22 2512.36,1101.11 2529.25,1066.88L2611.25,1066.88C2600.14,1100.66 2580.03,1128.33 2550.92,1149.88C2521.81,1171.44 2485.7,1182.22 2442.58,1182.22C2407.47,1182.22 2376.03,1174.33 2348.25,1158.55C2320.47,1142.77 2298.7,1120.55 2282.92,1091.88C2267.14,1063.22 2259.25,1030 2259.25,992.218C2259.25,954.44 2266.92,921.218 2282.25,892.551C2297.58,863.884 2319.14,841.773 2346.92,826.218C2374.7,810.662 2406.58,802.884 2442.58,802.884C2477.25,802.884 2508.14,810.44 2535.25,825.551C2562.36,840.662 2583.47,861.884 2598.58,889.218C2613.7,916.551 2621.25,947.995 2621.25,983.551ZM2541.92,959.551C2541.47,931.551 2531.47,909.107 2511.92,892.218C2492.36,875.329 2468.14,866.884 2439.25,866.884C2413.03,866.884 2390.58,875.218 2371.92,891.884C2353.25,908.551 2342.14,931.107 2338.58,959.551L2541.92,959.551Z" style="fill-rule:nonzero;"/>
            <path d="M2849.91,870.884L2781.91,870.884L2781.91,1176.22L2705.24,1176.22L2705.24,870.884L2661.91,870.884L2661.91,808.884L2705.24,808.884L2705.24,782.884C2705.24,740.662 2716.47,709.884 2738.91,690.551C2761.35,671.218 2796.58,661.551 2844.58,661.551L2844.58,724.884C2821.47,724.884 2805.24,729.218 2795.91,737.884C2786.58,746.551 2781.91,761.551 2781.91,782.884L2781.91,808.884L2849.91,808.884L2849.91,870.884Z" style="fill-rule:nonzero;"/>
            <path d="M2993.25,862.218C3004.36,843.551 3019.14,828.995 3037.58,818.551C3056.03,808.107 3077.92,802.884 3103.25,802.884L3103.25,881.551L3083.92,881.551C3054.14,881.551 3031.58,889.107 3016.25,904.218C3000.92,919.329 2993.25,945.551 2993.25,982.884L2993.25,1176.22L2917.25,1176.22L2917.25,808.884L2993.25,808.884L2993.25,862.218Z" style="fill-rule:nonzero;"/>
            <path d="M3509.91,983.551C3509.91,997.329 3509.02,1009.77 3507.24,1020.88L3226.58,1020.88C3228.8,1050.22 3239.69,1073.77 3259.24,1091.55C3278.8,1109.33 3302.8,1118.22 3331.24,1118.22C3372.13,1118.22 3401.02,1101.11 3417.91,1066.88L3499.91,1066.88C3488.8,1100.66 3468.69,1128.33 3439.58,1149.88C3410.47,1171.44 3374.35,1182.22 3331.24,1182.22C3296.13,1182.22 3264.69,1174.33 3236.91,1158.55C3209.13,1142.77 3187.35,1120.55 3171.58,1091.88C3155.8,1063.22 3147.91,1030 3147.91,992.218C3147.91,954.44 3155.58,921.218 3170.91,892.551C3186.24,863.884 3207.8,841.773 3235.58,826.218C3263.35,810.662 3295.24,802.884 3331.24,802.884C3365.91,802.884 3396.8,810.44 3423.91,825.551C3451.02,840.662 3472.13,861.884 3487.24,889.218C3502.35,916.551 3509.91,947.995 3509.91,983.551ZM3430.58,959.551C3430.13,931.551 3420.13,909.107 3400.58,892.218C3381.02,875.329 3356.8,866.884 3327.91,866.884C3301.69,866.884 3279.24,875.218 3260.58,891.884C3241.91,908.551 3230.8,931.107 3227.24,959.551L3430.58,959.551Z" style="fill-rule:nonzero;"/>
            <path d="M3623.25,760.218C3609.47,760.218 3597.92,755.551 3588.58,746.218C3579.25,736.884 3574.58,725.329 3574.58,711.551C3574.58,697.773 3579.25,686.218 3588.58,676.884C3597.92,667.551 3609.47,662.884 3623.25,662.884C3636.58,662.884 3647.92,667.551 3657.25,676.884C3666.58,686.218 3671.25,697.773 3671.25,711.551C3671.25,725.329 3666.58,736.884 3657.25,746.218C3647.92,755.551 3636.58,760.218 3623.25,760.218ZM3660.58,808.884L3660.58,1176.22L3584.58,1176.22L3584.58,808.884L3660.58,808.884Z" style="fill-rule:nonzero;"/>
        </g>
        <g>
            <path d="M445.149,521.681L205.408,521.681L164.215,637.264L66.177,637.264L271.316,70.747L380.064,70.747L585.203,637.264L486.341,637.264L445.149,521.681ZM418.785,445.983L325.69,183.074L231.771,445.983L418.785,445.983Z" style="fill-rule:nonzero;"/>
            <path d="M853.779,413.425L1063.04,637.264L936.164,637.264L768.098,444.355L768.098,637.264L674.179,637.264L674.179,34.933L768.098,34.933L768.098,384.936L932.869,188.771L1063.04,188.771L853.779,413.425Z" style="fill-rule:nonzero;"/>
            <path d="M1240.16,264.47L1240.16,512.728C1240.16,529.55 1244.14,541.623 1252.11,548.949C1260.07,556.275 1273.66,559.938 1292.89,559.938L1350.56,559.938L1350.56,637.264L1276.41,637.264C1234.12,637.264 1201.71,627.496 1179.19,607.961C1156.68,588.426 1145.42,556.682 1145.42,512.728L1145.42,264.47L1091.87,264.47L1091.87,188.771L1145.42,188.771L1145.42,77.259L1240.16,77.259L1240.16,188.771L1350.56,188.771L1350.56,264.47L1240.16,264.47Z" style="fill-rule:nonzero;"/>
            <path d="M1484.85,141.852C1467.82,141.852 1453.54,136.155 1442.01,124.759C1430.48,113.364 1424.71,99.255 1424.71,82.433C1424.71,65.611 1430.48,51.503 1442.01,40.107C1453.54,28.712 1467.82,23.014 1484.85,23.014C1501.33,23.014 1515.33,28.712 1526.87,40.107C1538.4,51.503 1544.17,65.611 1544.17,82.433C1544.17,99.255 1538.4,113.364 1526.87,124.759C1515.33,136.155 1501.33,141.852 1484.85,141.852ZM1530.99,188.771L1530.99,591.43L1437.07,591.43L1437.07,188.771L1530.99,188.771Z" style="fill-rule:nonzero;"/>
            <path d="M1851.46,644.589C1808.62,644.589 1769.9,634.958 1735.3,615.694C1700.69,596.43 1673.51,569.298 1653.74,534.298C1633.96,499.297 1624.08,458.735 1624.08,412.611C1624.08,367.029 1634.24,326.602 1654.56,291.33C1674.88,256.059 1702.62,228.927 1737.77,209.934C1772.92,190.942 1812.19,181.446 1855.58,181.446C1898.97,181.446 1938.24,190.942 1973.39,209.934C2008.54,228.927 2036.28,256.059 2056.6,291.33C2076.92,326.602 2087.08,367.029 2087.08,412.611C2087.08,458.192 2076.65,498.619 2055.78,533.891C2034.9,569.162 2006.48,596.43 1970.51,615.694C1934.53,634.958 1894.85,644.589 1851.46,644.589ZM1851.46,564.007C1875.63,564.007 1898.28,558.31 1919.43,546.914C1940.57,535.519 1957.74,518.426 1970.92,495.635C1984.1,472.844 1990.69,445.169 1990.69,412.611C1990.69,380.052 1984.38,352.513 1971.74,329.994C1959.11,307.474 1942.36,290.516 1921.49,279.121C1900.62,267.726 1878.1,262.028 1853.93,262.028C1829.77,262.028 1807.38,267.726 1786.79,279.121C1766.19,290.516 1749.85,307.474 1737.77,329.994C1725.68,352.513 1719.64,380.052 1719.64,412.611C1719.64,460.906 1732.14,498.212 1757.13,524.53C1782.12,550.848 1813.56,564.007 1851.46,564.007Z" style="fill-rule:nonzero;"/>
            <path d="M2409.21,181.446C2444.91,181.446 2476.9,188.771 2505.19,203.423C2533.47,218.074 2555.58,239.78 2571.51,268.54C2587.44,297.299 2595.4,332.028 2595.4,372.727L2595.4,637.264L2502.31,637.264L2502.31,386.564C2502.31,346.408 2492.14,315.614 2471.82,294.179C2451.5,272.745 2423.76,262.028 2388.61,262.028C2353.46,262.028 2325.59,272.745 2304.99,294.179C2284.4,315.614 2274.1,346.408 2274.1,386.564L2274.1,637.264L2180.18,637.264L2180.18,188.771L2274.1,188.771L2274.1,240.051C2289.48,221.601 2309.11,207.221 2333,196.911C2356.9,186.601 2382.3,181.446 2409.21,181.446Z" style="fill-rule:nonzero;"/>
        </g>
    </g>
</svg>
